packages/icons/svgs/solid/Source=wifi-off.svg

<svg width="12" height="12" viewBox="0 0 12 12" fill="none" xmlns="http://www.w3.org/2000/svg">
<g clip-path="url(#clip0_1013_691)">
<path d="M6.1065 5.63025C6.0705 5.6295 6.036 5.625 6 5.625C4.575 5.625 3.3 6.15 2.325 7.2L3.375 8.25C3.9735 7.5855 4.809 7.23225 5.67 7.15725L6.1065 5.63025Z" fill="black"/>
<path d="M7.5975 5.87025L7.17975 7.332C7.72275 7.5135 8.22825 7.809 8.625 8.25L9.675 7.2C9.0825 6.56175 8.37825 6.12075 7.5975 5.87025Z" fill="black"/>
<path d="M6.636 3.77925L7.05375 2.31975C6.7065 2.27775 6.35625 2.25 6 2.25C3.75 2.25 1.65 3.075 0 4.65L1.05 5.7C2.4 4.425 4.125 3.75 6 3.75C6.2145 3.75 6.426 3.76125 6.636 3.77925Z" fill="black"/>
<path d="M8.526 2.61975L8.1135 4.06275C9.1635 4.38375 10.1265 4.95225 10.9492 5.775L12 4.65C10.9882 3.68475 9.807 3.00375 8.526 2.61975Z" fill="black"/>
<path d="M4.50073 12C4.43173 12 4.36273 11.9903 4.29448 11.9708C3.89623 11.8568 3.66523 11.442 3.77848 11.0438L6.77848 0.543752C6.89248 0.144752 7.31173 -0.0854982 7.70548 0.0285018C8.10373 0.142502 8.33473 0.557252 8.22148 0.955502L5.22148 11.4555C5.12698 11.7855 4.82698 12 4.50073 12Z" fill="black"/>
</g>
<defs>
<clipPath id="clip0_1013_691">
<rect width="12" height="12" fill="white"/>
</clipPath>
</defs>
</svg>

<svg xmlns="http://www.w3.org/2000/svg" width="12" height="12" viewBox="0 0 12 12"><g clip-path="url(#a)"><path d="M6.106 5.63c-.035 0-.07-.005-.106-.005-1.425 0-2.7.525-3.675 1.575l1.05 1.05c.599-.665 1.434-1.018 2.295-1.093l.436-1.527Zm1.492.24L7.18 7.332a3.337 3.337 0 0 1 1.445.918l1.05-1.05a4.817 4.817 0 0 0-2.078-1.33Zm-.962-2.09.418-1.46A8.576 8.576 0 0 0 0 4.65L1.05 5.7C2.4 4.425 4.125 3.75 6 3.75c.215 0 .426.011.636.03Zm1.89-1.16-.412 1.443c1.05.32 2.012.89 2.835 1.712L12 4.65a8.582 8.582 0 0 0-3.474-2.03Z"/><path d="M4.5 12a.75.75 0 0 1-.722-.956l3-10.5a.751.751 0 0 1 1.443.412l-3 10.5a.75.75 0 0 1-.72.544Z"/></g><defs><clipPath id="a"><path fill="#fff" d="M0 0h12v12H0z"/></clipPath></defs></svg>
